assets/images/world.svg

<svg width="200" height="200" viewBox="0 0 200 200" fill="none" xmlns="http://www.w3.org/2000/svg">
<path d="M103.181 197.018C154.127 197.018 195.427 155.718 195.427 104.771C195.427 53.8251 154.127 12.525 103.181 12.525C52.2346 12.525 10.9344 53.8251 10.9344 104.771C10.9344 155.718 52.2346 197.018 103.181 197.018Z" fill="#71C2F5"/>
<path d="M119.086 190.656C68.1391 190.656 26.8391 149.356 26.8391 98.4094C26.8391 62.6199 47.2207 31.5922 77.0098 16.2972C38.8121 27.5793 10.9344 62.9168 10.9344 104.771C10.9344 155.718 52.2348 197.018 103.181 197.018C118.338 197.018 132.641 193.361 145.257 186.884C136.959 189.334 128.177 190.656 119.086 190.656Z" fill="#56ACE1"/>
<path d="M77.0062 16.2988C59.3797 21.507 43.95 31.8348 32.4449 45.5664L39.1762 52.2977C48.0449 36.9613 61.2004 24.4152 77.0062 16.2988Z" fill="#15B259"/>
<path d="M79.2551 181.636L66.0195 189.22C77.3891 194.23 89.9582 197.018 103.18 197.018C118.332 197.018 132.627 193.362 145.239 186.889C136.947 189.336 128.171 190.656 119.085 190.656C104.821 190.656 91.3129 187.416 79.2551 181.636Z" fill="#15B259"/>
<path d="M182.994 151.046L133.93 139.364C133.93 139.364 126.243 116.302 126.243 112.458C126.243 108.614 145.461 85.5527 145.461 85.5527L192.229 80.6297C181.618 41.3941 145.773 12.525 103.181 12.525C94.0875 12.525 85.3047 13.8468 77.0063 16.2992C61.2008 24.4152 48.0453 36.9617 39.1766 52.2976L49.3707 62.4918L80.1195 66.3355L103.181 85.6863L107.025 108.616L110.869 131.677L96.8195 171.571L79.2559 181.636C91.3137 187.417 104.821 190.657 119.086 190.657C128.171 190.657 136.947 189.337 145.24 186.889C160.996 178.801 174.123 166.314 182.994 151.046Z" fill="#3AC274"/>
<path d="M26.839 98.4094C26.839 95.8906 26.9441 93.3965 27.1422 90.9285L11.7898 92.2082C11.2301 96.3168 10.9348 100.509 10.9348 104.771C10.9348 135.398 25.8648 162.534 48.8398 179.312L60.9473 170.024C40.1375 153.111 26.839 127.315 26.839 98.4094Z" fill="#15B259"/>
<path d="M80.1192 135.52L60.9012 123.989L45.5266 89.3965L27.1418 90.9285C26.9438 93.3961 26.8387 95.8902 26.8387 98.4094C26.8387 127.315 40.1371 153.111 60.9461 170.025L71.3715 162.028L80.1192 135.52Z" fill="#3AC274"/>
<path d="M103.181 133.4C103.181 119.346 114.574 107.952 128.628 107.952C142.682 107.952 154.075 119.346 154.075 133.4C154.075 152.485 128.628 177.932 128.628 177.932C128.628 177.932 103.181 152.485 103.181 133.4Z" fill="#FFCF1A"/>
<path d="M112.724 130.219C112.724 120.777 117.871 112.542 125.507 108.15C112.927 109.689 103.181 120.403 103.181 133.4C103.181 152.485 128.628 177.932 128.628 177.932C128.628 177.932 131.241 175.318 134.79 171.142C127.868 163.452 112.724 144.943 112.724 130.219Z" fill="#FFBE35"/>
<path d="M128.628 146.123C135.655 146.123 141.352 140.427 141.352 133.4C141.352 126.372 135.655 120.676 128.628 120.676C121.601 120.676 115.904 126.372 115.904 133.4C115.904 140.427 121.601 146.123 128.628 146.123Z" fill="#FFE88F"/>
<path d="M128.628 28.4293C128.628 14.3754 140.022 2.98206 154.075 2.98206C168.129 2.98206 179.523 14.3754 179.523 28.4293C179.523 47.5149 154.075 72.9621 154.075 72.9621C154.075 72.9621 128.628 47.5149 128.628 28.4293Z" fill="#FFCF1A"/>
<path d="M138.171 25.2485C138.171 15.8063 143.318 7.57151 150.955 3.17932C138.374 4.71877 128.628 15.4324 128.628 28.4293C128.628 47.5149 154.075 72.9621 154.075 72.9621C154.075 72.9621 156.688 70.3481 160.237 66.1719C153.316 58.4817 138.171 39.9735 138.171 25.2485Z" fill="#FFBE35"/>
<path d="M154.075 41.1531C161.103 41.1531 166.799 35.4564 166.799 28.4293C166.799 21.4021 161.103 15.7054 154.075 15.7054C147.048 15.7054 141.352 21.4021 141.352 28.4293C141.352 35.4564 147.048 41.1531 154.075 41.1531Z" fill="#FFE88F"/>
<path d="M4.57266 69.7812C4.57266 55.7273 15.966 44.334 30.0199 44.334C44.0738 44.334 55.4672 55.7273 55.4672 69.7812C55.4672 88.8668 30.0199 114.314 30.0199 114.314C30.0199 114.314 4.57266 88.8668 4.57266 69.7812Z" fill="#FFCF1A"/>
<path d="M14.1152 66.6004C14.1152 57.1582 19.2621 48.9234 26.8988 44.5312C14.318 46.0707 4.57227 56.7844 4.57227 69.7812C4.57227 88.8668 30.0195 114.314 30.0195 114.314C30.0195 114.314 32.6324 111.7 36.1813 107.524C29.2602 99.8332 14.1152 81.3254 14.1152 66.6004Z" fill="#FFBE35"/>
<path d="M30.0199 82.5051C37.0471 82.5051 42.7437 76.8084 42.7437 69.7813C42.7437 62.7541 37.0471 57.0574 30.0199 57.0574C22.9927 57.0574 17.2961 62.7541 17.2961 69.7813C17.2961 76.8084 22.9927 82.5051 30.0199 82.5051Z" fill="#FFE88F"/>
<path d="M177.802 45.6074C180.593 39.8871 182.505 33.9547 182.505 28.4293C182.505 12.7535 169.752 0 154.075 0C143.927 0 135.008 5.34961 129.977 13.373C124.462 11.7594 118.773 10.6375 113.04 10.0473C111.405 9.87734 109.937 11.0699 109.768 12.7086C109.6 14.3469 110.791 15.8117 112.43 15.9801C117.464 16.498 122.463 17.4496 127.324 18.8109C126.24 21.8168 125.646 25.0547 125.646 28.4293C125.646 48.5191 150.893 73.9965 151.967 75.0707C153.116 76.2191 155.036 76.2191 156.184 75.0707C156.863 74.3918 167.18 63.9812 174.692 51.3418C180.822 59.5184 185.423 68.5035 188.403 78.0344L145.148 82.5875C144.377 82.6691 143.666 83.048 143.17 83.6445C142.721 84.182 132.141 96.8977 126.723 105.041C120.594 105.449 114.989 107.801 110.528 111.494L109.966 108.122L106.122 85.193C106.005 84.493 105.641 83.8578 105.098 83.4012L82.0363 64.0504C81.5965 63.6812 81.059 63.4473 80.4891 63.3762L56.8594 60.4223C53.9558 52.1203 47.307 45.568 38.9457 42.7949C54.8305 26.3023 75.9977 16.677 98.9453 15.6051C100.591 15.5285 101.862 14.1324 101.785 12.4875C101.709 10.8426 100.312 9.56328 98.6676 9.64766C85.7098 10.2523 73.2496 13.4199 61.6328 19.0609C50.373 24.5289 40.4266 32.0563 32.0687 41.4336C31.3914 41.3852 30.7098 41.3516 30.0203 41.3516C14.3445 41.3516 1.591 54.1051 1.591 69.7809C1.591 76.8633 4.73007 84.6141 8.84022 91.7309C8.25233 96.0238 7.95272 100.41 7.95272 104.771C7.95272 130.208 17.8586 154.121 35.8445 172.108C53.8305 190.094 77.7441 200 103.181 200C128.618 200 152.531 190.094 170.518 172.108C188.504 154.122 198.409 130.208 198.409 104.771C198.409 83.0355 191.283 62.5852 177.802 45.6074ZM154.075 68.6297C148.119 62.1668 131.61 42.9453 131.61 28.4293C131.61 16.0422 141.688 5.96406 154.075 5.96406C166.463 5.96406 176.541 16.0422 176.541 28.4293C176.541 42.9457 160.032 62.1672 154.075 68.6297ZM128.628 110.934C141.015 110.934 151.093 121.012 151.093 133.4C151.093 147.916 134.585 167.137 128.628 173.6C122.671 167.137 106.163 147.916 106.163 133.4C106.163 121.012 116.241 110.934 128.628 110.934ZM78.8762 69.1852L100.422 87.2637L104.083 109.105L105.404 117.034C102.13 121.665 100.199 127.309 100.199 133.4C100.199 137.364 101.184 141.537 102.771 145.692L94.3746 169.534L65.8848 185.861C61.7133 183.934 57.7148 181.696 53.9195 179.174L73.1867 164.394C73.6613 164.03 74.0156 163.531 74.2035 162.962L82.9512 136.455C83.3883 135.13 82.8492 133.68 81.6539 132.963L63.2441 121.917L50.4191 93.0605C54.907 85.5891 58.45 77.307 58.45 69.7812C58.45 68.7086 58.3848 67.6512 58.2687 66.609L78.8762 69.1852ZM30.0199 47.316C42.407 47.316 52.4851 57.3941 52.4851 69.7812C52.4851 84.2973 35.9769 103.519 30.0199 109.982C24.0629 103.519 7.55468 84.2973 7.55468 69.7812C7.55468 57.3941 17.6324 47.316 30.0199 47.316ZM13.9164 104.771C13.9164 103.122 13.9637 101.468 14.0539 99.8184C20.5922 109.043 27.3656 115.877 27.9113 116.423C29.0594 117.571 30.9808 117.571 32.1285 116.423C32.6894 115.862 39.8379 108.649 46.543 99.0254L58.1762 125.201C58.425 125.761 58.841 126.231 59.3672 126.547L76.5402 136.851L68.8281 160.221L48.8504 175.546C27.6234 159.212 13.9164 133.564 13.9164 104.771ZM103.181 194.036C92.5434 194.036 82.3363 192.162 72.8676 188.733L98.3019 174.158C98.9226 173.802 99.3945 173.236 99.632 172.561L106.371 153.426C113.919 167.331 125.79 179.311 126.52 180.041C127.668 181.189 129.589 181.189 130.737 180.041C131.574 179.204 147.081 163.555 153.893 147.182L178.272 152.987C162.373 177.662 134.654 194.036 103.181 194.036ZM181.47 147.618L155.862 141.521C156.62 138.766 157.058 136.036 157.058 133.4C157.058 119.458 146.966 107.836 133.706 105.434C138.285 99.0336 144.775 91.0738 146.983 88.3926L190.009 83.8637C191.621 90.6254 192.445 97.6242 192.445 104.772C192.445 120.288 188.462 134.891 181.47 147.618Z" fill="#304860"/>
<path d="M128.628 149.105C137.288 149.105 144.334 142.06 144.334 133.4C144.334 124.739 137.288 117.694 128.628 117.694C119.968 117.694 112.922 124.739 112.922 133.4C112.923 142.06 119.968 149.105 128.628 149.105ZM128.628 123.658C134 123.658 138.37 128.028 138.37 133.4C138.37 138.771 134 143.141 128.628 143.141C123.257 143.141 118.887 138.771 118.887 133.4C118.887 128.028 123.257 123.658 128.628 123.658Z" fill="#304860"/>
<path d="M154.075 12.7238C145.415 12.7238 138.37 19.7695 138.37 28.4297C138.37 37.0898 145.415 44.1355 154.075 44.1355C162.736 44.1355 169.781 37.0898 169.781 28.4297C169.781 19.7695 162.736 12.7238 154.075 12.7238ZM154.075 38.1711C148.703 38.1711 144.334 33.8008 144.334 28.4297C144.334 23.0586 148.704 18.6883 154.075 18.6883C159.447 18.6883 163.817 23.0586 163.817 28.4297C163.817 33.8008 159.447 38.1711 154.075 38.1711Z" fill="#304860"/>
<path d="M45.7258 69.7812C45.7258 61.1211 38.6801 54.0754 30.0199 54.0754C21.3598 54.0754 14.3141 61.1211 14.3141 69.7812C14.3141 78.4414 21.3598 85.4871 30.0199 85.4871C38.6801 85.4871 45.7258 78.4414 45.7258 69.7812ZM20.2785 69.7812C20.2785 64.4098 24.6488 60.0398 30.0199 60.0398C35.391 60.0398 39.7613 64.4101 39.7613 69.7812C39.7613 75.1523 35.391 79.5226 30.0199 79.5226C24.6488 79.5226 20.2785 75.1527 20.2785 69.7812Z" fill="#304860"/>
</svg>

<svg xmlns="http://www.w3.org/2000/svg" width="200" height="200" fill="none" xmlns:v="https://vecta.io/nano"><path d="M103.181 197.018c50.946 0 92.246-41.3 92.246-92.247s-41.3-92.246-92.246-92.246-92.247 41.3-92.247 92.246 41.3 92.247 92.247 92.247z" fill="#71c2f5"/><path d="M119.086 190.656c-50.947 0-92.247-41.3-92.247-92.247 0-35.79 20.382-66.817 50.171-82.112-38.198 11.282-66.075 46.62-66.075 88.474 0 50.947 41.3 92.247 92.247 92.247 15.157 0 29.46-3.657 42.076-10.134-8.298 2.45-17.08 3.772-26.171 3.772z" fill="#56ace1"/><path d="M77.006 16.299C59.38 21.507 43.95 31.835 32.445 45.566l6.731 6.731c8.869-15.336 22.024-27.882 37.83-35.999zm2.249 165.337L66.02 189.22c11.37 5.01 23.939 7.798 37.161 7.798 15.152 0 29.447-3.656 42.059-10.129-8.292 2.447-17.068 3.767-26.154 3.767-14.264 0-27.772-3.24-39.83-9.02z" fill="#15b259"/><path d="M182.994 151.046l-49.064-11.682s-7.687-23.062-7.687-26.906 19.218-26.905 19.218-26.905l46.768-4.923c-10.611-39.236-46.456-68.105-89.048-68.105-9.093 0-17.876 1.322-26.175 3.774-15.805 8.116-28.961 20.663-37.83 35.998l10.194 10.194 30.749 3.844 23.061 19.351 3.844 22.93 3.844 23.061-14.049 39.894-17.564 10.065c12.058 5.781 25.565 9.021 39.83 9.021a92.24 92.24 0 0 0 26.154-3.768 92.68 92.68 0 0 0 37.754-35.843z" fill="#3ac274"/><path d="M26.839 98.409l.303-7.481-15.352 1.28c-.56 4.109-.855 8.301-.855 12.563 0 30.627 14.93 57.763 37.905 74.541l12.108-9.288c-20.81-16.913-34.108-42.709-34.108-71.615z" fill="#15b259"/><path d="M80.119 135.52l-19.218-11.531-15.375-34.592-18.385 1.532-.303 7.481c0 28.906 13.298 54.702 34.107 71.616l10.425-7.997 8.748-26.508z" fill="#3ac274"/><path d="M103.181 133.4c0-14.054 11.393-25.448 25.447-25.448s25.447 11.394 25.447 25.448c0 19.085-25.447 44.532-25.447 44.532s-25.447-25.447-25.447-44.532z" fill="#ffcf1a"/><path d="M112.724 130.219c0-9.442 5.147-17.677 12.783-22.069-12.58 1.539-22.326 12.253-22.326 25.25 0 19.085 25.447 44.532 25.447 44.532s2.613-2.614 6.162-6.79c-6.922-7.69-22.066-26.199-22.066-40.923z" fill="#ffbe35"/><path d="M128.628 146.123c7.027 0 12.724-5.696 12.724-12.723s-5.697-12.724-12.724-12.724-12.724 5.696-12.724 12.724 5.697 12.723 12.724 12.723z" fill="#ffe88f"/><path d="M128.628 28.429c0-14.054 11.394-25.447 25.447-25.447s25.448 11.393 25.448 25.447c0 19.086-25.448 44.533-25.448 44.533s-25.447-25.447-25.447-44.533z" fill="#ffcf1a"/><path d="M138.171 25.249c0-9.442 5.147-17.677 12.784-22.069-12.581 1.539-22.327 12.253-22.327 25.25 0 19.086 25.447 44.533 25.447 44.533s2.613-2.614 6.162-6.79c-6.921-7.69-22.066-26.198-22.066-40.923z" fill="#ffbe35"/><path d="M154.075 41.153c7.028 0 12.724-5.697 12.724-12.724s-5.696-12.724-12.724-12.724-12.723 5.697-12.723 12.724 5.696 12.724 12.723 12.724z" fill="#ffe88f"/><path d="M4.573 69.781c0-14.054 11.393-25.447 25.447-25.447s25.447 11.393 25.447 25.447c0 19.086-25.447 44.533-25.447 44.533S4.573 88.867 4.573 69.781z" fill="#ffcf1a"/><path d="M14.115 66.6c0-9.442 5.147-17.677 12.784-22.069-12.581 1.54-22.327 12.253-22.327 25.25 0 19.086 25.447 44.533 25.447 44.533s2.613-2.614 6.162-6.79C29.26 99.833 14.115 81.325 14.115 66.6z" fill="#ffbe35"/><path d="M30.02 82.505c7.027 0 12.724-5.697 12.724-12.724S37.047 57.057 30.02 57.057s-12.724 5.697-12.724 12.724 5.697 12.724 12.724 12.724z" fill="#ffe88f"/><path d="M177.802 45.607c2.791-5.72 4.703-11.653 4.703-17.178C182.505 12.754 169.752 0 154.075 0c-10.148 0-19.067 5.35-24.098 13.373a95.15 95.15 0 0 0-16.937-3.326c-1.635-.17-3.103 1.023-3.272 2.661a2.98 2.98 0 0 0 2.662 3.271 89.16 89.16 0 0 1 14.894 2.831c-1.084 3.006-1.678 6.244-1.678 9.618 0 20.09 25.247 45.567 26.321 46.641 1.149 1.148 3.069 1.148 4.217 0 .679-.679 10.996-11.09 18.508-23.729 6.13 8.177 10.731 17.162 13.711 26.693l-43.255 4.553a2.98 2.98 0 0 0-1.978 1.057c-.449.538-11.029 13.253-16.447 21.397-6.129.408-11.734 2.76-16.195 6.453l-.562-3.372-3.844-22.929c-.117-.7-.481-1.335-1.024-1.792L82.036 64.05a2.98 2.98 0 0 0-1.547-.674l-23.63-2.954a28.56 28.56 0 0 0-17.914-17.627c15.885-16.493 37.052-26.118 60-27.19a2.98 2.98 0 0 0 2.84-3.118c-.076-1.645-1.473-2.924-3.117-2.84a94.37 94.37 0 0 0-37.035 9.413c-11.26 5.468-21.206 12.995-29.564 22.373-.677-.048-1.359-.082-2.048-.082-15.676 0-28.429 12.754-28.429 28.429 0 7.082 3.139 14.833 7.249 21.95a96.42 96.42 0 0 0-.888 13.04c0 25.437 9.906 49.35 27.892 67.337S77.744 200 103.181 200s49.35-9.906 67.337-27.892 27.891-41.9 27.891-67.337c0-21.735-7.126-42.186-20.607-59.164zM154.075 68.63c-5.956-6.463-22.465-25.684-22.465-40.2 0-12.387 10.078-22.465 22.465-22.465s22.466 10.078 22.466 22.465c0 14.516-16.509 33.738-22.466 40.2zm-25.447 42.304c12.387 0 22.465 10.078 22.465 22.466 0 14.516-16.508 33.737-22.465 40.2-5.957-6.463-22.465-25.684-22.465-40.2 0-12.388 10.078-22.466 22.465-22.466zM78.876 69.185l21.546 18.079 3.661 21.841 1.321 7.929c-3.274 4.631-5.205 10.275-5.205 16.366 0 3.964.985 8.137 2.572 12.292l-8.396 23.842-28.49 16.327a89.23 89.23 0 0 1-11.965-6.687l19.267-14.78a2.98 2.98 0 0 0 1.017-1.432l8.748-26.507a2.98 2.98 0 0 0-1.297-3.492l-18.41-11.046L50.42 93.061c4.488-7.471 8.031-15.754 8.031-23.279a28.64 28.64 0 0 0-.181-3.172l20.607 2.576zM30.02 47.316c12.387 0 22.465 10.078 22.465 22.465 0 14.516-16.508 33.738-22.465 40.201-5.957-6.463-22.465-25.685-22.465-40.201 0-12.387 10.078-22.465 22.465-22.465zm-16.103 57.455a90.01 90.01 0 0 1 .138-4.953c6.538 9.225 13.312 16.059 13.857 16.605 1.148 1.148 3.069 1.148 4.217 0 .561-.561 7.709-7.774 14.414-17.398l11.633 26.176c.249.56.665 1.03 1.191 1.346l17.173 10.304-7.712 23.37-19.978 15.325c-21.227-16.334-34.934-41.982-34.934-70.775zm89.265 89.265c-10.638 0-20.845-1.874-30.313-5.303l25.434-14.575a2.98 2.98 0 0 0 1.33-1.597l6.739-19.135c7.548 13.905 19.419 25.885 20.149 26.615 1.148 1.148 3.069 1.148 4.217 0 .837-.837 16.344-16.486 23.156-32.859l24.379 5.805c-15.899 24.675-43.618 41.049-75.091 41.049zm78.289-46.418l-25.608-6.097c.758-2.755 1.196-5.485 1.196-8.121 0-13.942-10.092-25.564-23.352-27.966 4.579-6.4 11.069-14.36 13.277-17.041l43.026-4.529c1.612 6.762 2.436 13.761 2.436 20.908 0 15.516-3.983 30.119-10.975 42.846zm-52.843 1.487c8.66 0 15.706-7.045 15.706-15.705s-7.046-15.706-15.706-15.706-15.706 7.045-15.706 15.706 7.046 15.705 15.706 15.705zm0-25.447c5.372 0 9.742 4.37 9.742 9.742s-4.37 9.741-9.742 9.741-9.741-4.37-9.741-9.741 4.37-9.742 9.741-9.742zm25.447-110.934c-8.66 0-15.705 7.046-15.705 15.706s7.045 15.706 15.705 15.706 15.706-7.046 15.706-15.706-7.045-15.706-15.706-15.706zm0 25.447c-5.372 0-9.741-4.37-9.741-9.741s4.37-9.741 9.741-9.741 9.742 4.37 9.742 9.741-4.37 9.741-9.742 9.741zM45.726 69.781c0-8.66-7.046-15.706-15.706-15.706s-15.706 7.046-15.706 15.706S21.36 85.487 30.02 85.487s15.706-7.046 15.706-15.706zm-25.447 0c0-5.371 4.37-9.741 9.741-9.741s9.741 4.37 9.741 9.741-4.37 9.741-9.741 9.741-9.741-4.37-9.741-9.741z" fill="#304860"/></svg>
